X:8618
T:King Pipping Polka. TLY.035
M:2/4
L:1/16
Q:120
S:Wm.Tildesley,Swinton,Lancs.1860s.
R:Polka
O:England.
A:Lancashire.
N:Wrong key sig presumably. Compare other versions. CGP.
H:1860.
Z:vmp.Taz Tarry.
K:C
"try in other keys"A2Ad "P"f4|g2gB f4|f2e2 efe2|e2d2 ded2|A2Ad f4|g2gB f
4|f2e2 efe2|d2d2d2:
|!
aaa2 AAA2|B2A2 GBA2|"P"f2e2 efe2|e2d2 ded2|aaa2 AAA2|B2A2 ABA2|f2e2 edec
|d2
d2d2:|!
|:"F"d2dg B2de|d2c2 c4|.D.E.F.G .A.B.c.d|.e.f.g.a b4|d2dg B2de|d2c2 c4|.
F.G.A
.B .c.d.e.f|g2g2g2z2:|!
|:"F"d2f2 A2(3fed|c2b2b2 A2|e2g2 A2(3gfe|d2d2d2 z2|d2f2 A2(3fed|c2b2b2
A2|e2g2 A2(3gfe|d2d2d2 z2:|!
|:d2d-g B2d-e|d2c2 c4|.D.E.F.G .A.B.c.d|.e.f.g.a b4|d2dg B2de|d2c2 c4|.F
.G.A.B .c.d.e.f|g2g2g2 z2:|]
